X:1
T:Title
%%score { ( 1 4 ) | ( 2 3 ) }
L:1/8
M:4/4
K:Ab
V:1 treble nm="Grand Piano"
V:4 treble 
V:2 bass 
V:3 bass 
V:1
 z4 z2[Q:1/4=104] [CE]2 | [Ec]3 [DB] [CA][CE][CA][DB] | [Ec]6 c2 | [Fd]3 [Fd] [Ec][EB][EA][Ec] | %4
 B6 E2 | [Ec]3 [DB] [CA][CE][CA][DB] | [Ec]6 [_Gc]2 | [Fd]3 [Fd] cBAG |[M:3/4] [CEA]6 | %9
[M:1/4] [CEA]2 |[M:4/4] [GB]3 [_G=A] [=GB][_Ac][Bd][GB] | c4 e2 c2 | B3 G [Ac][GB][FA][=DF] | %13
 E4 F2 G2 | [CA]3 [DG] [EA]Bcd | e6 z2 | c3 B AAGB |[M:3/4] [CEA]6 |] %18
V:2
 z4 z2 [A,,A,]2 | [A,,A,]3 [A,,A,] [A,,A,][A,,A,][A,,A,][A,,A,] | [A,,A,]6 [A,E]2 | %3
 [D,A,]3 [D,A,] [A,,A,][B,,G,][C,A,][A,,A,] | [E,G,E]6 [E,G,]2 | %5
 [A,,A,]3 [A,,A,] [A,,A,][A,,A,][A,,A,][A,,A,] | [A,,A,]6 [A,,A,]2 | %7
 [D,A,]3 [D,A,] [E,A,E][E,B,E][E,CE][E,DE] |[M:3/4] A,,6 |[M:1/4] A,2 | %10
[M:4/4] [E,E]3 [E,E] [E,E][E,E][E,E][E,E] | E4 z4 | %12
 [B,EG]3 [B,E][K:bass] [B,,B,][B,,B,][B,,B,][B,,A,] | E,4- [E,A,=D]2 [E,B,_D]2 | %14
 [A,,A,]3 [B,,E,] [C,A,][E,G,E][A,E][A,B,E] | [A,C]6 z2 | %16
 [E,A,E]3 [E,DE] [E,CE][E,CE][E,B,E][E,DE] |[M:3/4] A,,6 |] %18
V:3
 x8 | x8 | x8 | x8 | x8 | x8 | x8 | x8 |[M:3/4] x6 |[M:1/4] x2 |[M:4/4] x8 | %11
 [A,A]4- [A,CA]2 [A,EA]2 | x4[K:bass] x4 | G,4 z4 | x8 | E2 z2 z2 [D,A,]2 | x8 |[M:3/4] x6 |] %18
V:4
 x8 | x8 | x8 | x8 | x8 | x8 | x8 | x8 |[M:3/4] x6 |[M:1/4] x2 |[M:4/4] x8 | x8 | x8 | x8 | x8 | %15
 z2 A2 G2 [Fd]2 | x8 |[M:3/4] x6 |] %18

